resources/svg/solid/dog.svg

<svg fill="currentColor" xmlns="http://www.w3.org/2000/svg" viewBox="0 0 576 512"><!--! Font Awesome Free 6.1.2 by @fontawesome - https://fontawesome.com License - https://fontawesome.com/license/free (Icons: CC BY 4.0, Fonts: SIL OFL 1.1, Code: MIT License) Copyright 2022 Fonticons, Inc. --><path d="M332.7 19.85C334.6 8.395 344.5 0 356.1 0C363.6 0 370.6 3.52 375.1 9.502L392 32H444.1C456.8 32 469.1 37.06 478.1 46.06L496 64H552C565.3 64 576 74.75 576 88V112C576 156.2 540.2 192 496 192H426.7L421.6 222.5L309.6 158.5L332.7 19.85zM448 64C439.2 64 432 71.16 432 80C432 88.84 439.2 96 448 96C456.8 96 464 88.84 464 80C464 71.16 456.8 64 448 64zM416 256.1V480C416 497.7 401.7 512 384 512H352C334.3 512 320 497.7 320 480V364.8C295.1 377.1 268.8 384 240 384C211.2 384 184 377.1 160 364.8V480C160 497.7 145.7 512 128 512H96C78.33 512 64 497.7 64 480V249.8C35.23 238.9 12.64 214.5 4.836 183.3L.9558 167.8C-3.331 150.6 7.094 133.2 24.24 128.1C41.38 124.7 58.76 135.1 63.05 152.2L66.93 167.8C70.49 182 83.29 191.1 97.97 191.1H303.8L416 256.1z"/></svg>

<svg fill="currentColor" xmlns="http://www.w3.org/2000/svg" viewBox="0 0 576 512"><!--! Font Awesome Free 6.2.0 by @fontawesome - https://fontawesome.com License - https://fontawesome.com/license/free (Icons: CC BY 4.0, Fonts: SIL OFL 1.1, Code: MIT License) Copyright 2022 Fonticons, Inc. --><path d="M309.6 158.5L332.7 19.8C334.6 8.4 344.5 0 356.1 0c7.5 0 14.5 3.5 19 9.5L392 32h52.1c12.7 0 24.9 5.1 33.9 14.1L496 64h56c13.3 0 24 10.7 24 24v24c0 44.2-35.8 80-80 80H464 448 426.7l-5.1 30.5-112-64zM416 256.1L416 480c0 17.7-14.3 32-32 32H352c-17.7 0-32-14.3-32-32V364.8c-24 12.3-51.2 19.2-80 19.2s-56-6.9-80-19.2V480c0 17.7-14.3 32-32 32H96c-17.7 0-32-14.3-32-32V249.8c-28.8-10.9-51.4-35.3-59.2-66.5L1 167.8c-4.3-17.1 6.1-34.5 23.3-38.8s34.5 6.1 38.8 23.3l3.9 15.5C70.5 182 83.3 192 98 192h30 16H303.8L416 256.1zM464 80c0-8.8-7.2-16-16-16s-16 7.2-16 16s7.2 16 16 16s16-7.2 16-16z"/></svg>
